src/assets/design.svg

<!DOCTYPE svg PUBLIC "-//W3C//DTD SVG 1.1//EN" "http://www.w3.org/Graphics/SVG/1.1/DTD/svg11.dtd">
<!-- Uploaded to: SVG Repo, www.svgrepo.com, Transformed by: SVG Repo Mixer Tools -->
<svg fill="#eeff00" width="800px" height="800px" viewBox="0 0 24 24" xmlns="http://www.w3.org/2000/svg">
<g id="SVGRepo_bgCarrier" stroke-width="0"/>
<g id="SVGRepo_tracerCarrier" stroke-linecap="round" stroke-linejoin="round"/>
<g id="SVGRepo_iconCarrier"> <path d="M17,6 L17,16.2792476 L18.5,17.7902865 L20,16.2792476 L20,6 L17,6 Z M17,5 L20,5 L20,3.01471863 L17,3.01471863 L17,5 Z M21,7 L21,16.4852814 C21,16.6172545 20.9478236,16.7438756 20.8548472,16.8375362 L18.8548472,18.8522548 C18.6592928,19.0492484 18.3407072,19.0492484 18.1451528,18.8522548 L16.1451528,16.8375362 C16.0521764,16.7438756 16,16.6172545 16,16.4852814 L16,14 L15.5,14 C14.6715729,14 14,13.3284271 14,12.5 L14,9.5 C14,8.67157288 14.6715729,8 15.5,8 L16,8 L16,7 L6,7 L6,14.5 C6,14.7761424 5.77614237,15 5.5,15 L5,15 C3.34314575,15 2,16.3431458 2,18 C2,19.6568542 3.34314575,21 5,21 L22,21 L22,7 L21,7 Z M21,6 L22.5,6 C22.7761424,6 23,6.22385763 23,6.5 L23,21.5 C23,21.7761424 22.7761424,22 22.5,22 L5,22 C2.790861,22 1,20.209139 1,18 L1,6.5 C1,4.01471863 3.01471863,2 5.5,2 C5.77614237,2 6,2.22385763 6,2.5 L6,6 L16,6 L16,2.51471863 C16,2.23857625 16.2238576,2.01471863 16.5,2.01471863 L20.5,2.01471863 C20.7761424,2.01471863 21,2.23857625 21,2.51471863 L21,6 Z M16,9 L15.5,9 C15.2238576,9 15,9.22385763 15,9.5 L15,12.5 C15,12.7761424 15.2238576,13 15.5,13 L16,13 L16,9 Z M2,15.3541756 C2.73294445,14.5237549 3.80530747,14 5,14 L5,3.03544443 C3.30385293,3.27805926 2,4.73676405 2,6.5 L2,15.3541756 L2,15.3541756 Z M8.5,8 L11.5,8 C12.3284271,8 13,8.67157288 13,9.5 L13,12.5 C13,13.3284271 12.3284271,14 11.5,14 L8.5,14 C7.67157288,14 7,13.3284271 7,12.5 L7,9.5 C7,8.67157288 7.67157288,8 8.5,8 Z M8.5,9 C8.22385763,9 8,9.22385763 8,9.5 L8,12.5 C8,12.7761424 8.22385763,13 8.5,13 L11.5,13 C11.7761424,13 12,12.7761424 12,12.5 L12,9.5 C12,9.22385763 11.7761424,9 11.5,9 L8.5,9 Z M7.5,17 C7.22385763,17 7,16.7761424 7,16.5 C7,16.2238576 7.22385763,16 7.5,16 L14.5,16 C14.7761424,16 15,16.2238576 15,16.5 C15,16.7761424 14.7761424,17 14.5,17 L7.5,17 Z M7.5,19 C7.22385763,19 7,18.7761424 7,18.5 C7,18.2238576 7.22385763,18 7.5,18 L15.5,18 C15.7761424,18 16,18.2238576 16,18.5 C16,18.7761424 15.7761424,19 15.5,19 L7.5,19 Z"/> </g>
</svg>

<svg xmlns="http://www.w3.org/2000/svg" width="22" height="20" viewBox="0 0 22 20">
  <g id="SVGRepo_iconCarrier" transform="translate(-1 -2)">
    <path id="Path_3" data-name="Path 3" d="M17,6V16.279l1.5,1.511L20,16.279V6Zm0-1h3V3.015H17Zm4,2v9.485a.5.5,0,0,1-.145.352l-2,2.015a.5.5,0,0,1-.71,0l-2-2.015A.5.5,0,0,1,16,16.485V14h-.5A1.5,1.5,0,0,1,14,12.5v-3A1.5,1.5,0,0,1,15.5,8H16V7H6v7.5a.5.5,0,0,1-.5.5H5a3,3,0,0,0,0,6H22V7Zm0-1h1.5a.5.5,0,0,1,.5.5v15a.5.5,0,0,1-.5.5H5a4,4,0,0,1-4-4V6.5A4.5,4.5,0,0,1,5.5,2a.5.5,0,0,1,.5.5V6H16V2.515a.5.5,0,0,1,.5-.5h4a.5.5,0,0,1,.5.5ZM16,9h-.5a.5.5,0,0,0-.5.5v3a.5.5,0,0,0,.5.5H16ZM2,15.354A3.99,3.99,0,0,1,5,14V3.035A3.5,3.5,0,0,0,2,6.5v8.854ZM8.5,8h3A1.5,1.5,0,0,1,13,9.5v3A1.5,1.5,0,0,1,11.5,14h-3A1.5,1.5,0,0,1,7,12.5v-3A1.5,1.5,0,0,1,8.5,8Zm0,1a.5.5,0,0,0-.5.5v3a.5.5,0,0,0,.5.5h3a.5.5,0,0,0,.5-.5v-3a.5.5,0,0,0-.5-.5Zm-1,8a.5.5,0,0,1,0-1h7a.5.5,0,0,1,0,1Zm0,2a.5.5,0,0,1,0-1h8a.5.5,0,0,1,0,1Z" fill="#ef0"/>
  </g>
</svg>
